X:1
T:Title
%%score { ( 1 4 ) | ( 2 3 ) }
L:1/8
M:6/8
K:C
V:1 treble nm="Grand Piano"
V:4 treble 
V:2 bass 
V:3 bass 
V:1
 z3 z2[Q:1/4=92] [EG] | [Ec]2 [Ec] [Ec][GB][FA] | [FA]2 [EG] [EG]2 [CE] | %3
 [B,D][CE][DF] [FA]2 [B,FG] |[M:5/8] [CEG]3 [CE]2 |[M:1/8] [EG] |[M:3/4] [Ec]2 [Ec][Ec] [GB][FA] | %7
 [FA]2 [EG] [EG]2 E | D2 G B2 A |[M:5/8] [B,DG]-[B,DG]- [B,DG]3 |[M:1/8] [B,DG] | %11
[M:3/4] [B,DG]2 [B,DF] [B,DF]2 [G,DF] | [G,DF]2 [G,CE] [G,CE]2 [G,CE] | %13
 [B,D][CE] [DF] [FA]2 [B,FG] |[M:5/8] [EG]-[EG]- [EG]3 |[M:1/8] [EG] | %16
[M:3/4] [Ge]2 [Ge][Ge] [Fd][Ec] | [Ac]2 [Ac][Ac] BA | G2 GF- [CFA][DFB] |[M:5/8] [Ec]-[Ec]- [Ec]3 | %20
[M:1/8] [EG] |[M:3/4] [EG]>[EG] [EG] [FA]2 [EG] | [Ec]6 | c>B A [^FA]2 [Fd] | %24
[M:5/8] [Gd]-[Gd]- [Gd]3 |[M:1/8] [EG] |[M:3/4] [Ge]2 [Ge]e d[Gc] | [Ac]2 [Ac][Ac] BA | %28
[M:7/8] G^FG e3 [=Fd][Q:1/4=90][Q:1/4=89][Q:1/4=87][Q:1/4=86][Q:1/4=85] | %29
[M:5/8] [Ec]-[Ec]- [Ec]3[Q:1/4=83][Q:1/4=82][Q:1/4=81][Q:1/4=79][Q:1/4=78][Q:1/4=77][Q:1/4=75][Q:1/4=74][Q:1/4=73][Q:1/4=71][Q:1/4=70] |] %30
V:2
 z3 z2 [C,C] | [C,C]2 [C,C] [C,C]2 [C,C] | [C,C]2 [C,C] [C,C]2 [C,G,] | %3
 [G,,G,]2 [G,,G,] [G,,G,]2 G,, |[M:5/8] z z2 G,2 |[M:1/8] [C,C] | %6
[M:3/4] [C,C]2 [C,C] [C,C]2 [C,C] | [C,C]2 [C,C] [C,C]2 [C,G,C] | %8
 [D,G,B,]2 [D,G,B,] [D,G,D]2 [D,CD] |[M:5/8] G,,-G,,- G,,3 |[M:1/8] G,, | %11
[M:3/4] G,,2 G,, G,,2 G,, | C,2 C, C,2 C, | [G,,G,]2 [G,,G,] [G,,G,]2 G,, | %14
[M:5/8] [C,C]-[C,C]- [C,C]3 |[M:1/8] [C,C] |[M:3/4] [C,C]2 [C,C][C,C] [D,B,][E,C] | %17
 [F,C]2 .[F,C]2[K:treble] G[F,CF] | [G,CE]2 [G,CE] [G,,G,]2 [G,,G,] |[M:5/8] [C,C]-[C,C]- [C,C]3 | %20
[M:1/8] [C,C] |[M:3/4] [C,C]>[C,C] [C,C] [C,C]2 [C,C] | [C,G,]2 C, C,2 [C,G,] | %23
 [F,A,F]>[F,B,F] [F,CF] [D,D]2 [D,C] |[M:5/8] [G,B,]2 G, G,2 |[M:1/8] [C,C] | %26
[M:3/4] [C,C]2 [C,C][C,C] [D,B,][E,C] | [F,C]2 .[F,C]2[K:treble] G[F,CF] | %28
[M:7/8] [G,CE][G,C_E][G,C=E] [G,CG]3[K:bass] [G,,G,] |[M:5/8] [C,G,]-[C,G,]- [C,G,]3 |] %30
V:3
 x6 | x6 | x6 | x6 |[M:5/8] C,-C,- C,3 |[M:1/8] x |[M:3/4] x6 | x6 | x6 |[M:5/8] x5 |[M:1/8] x | %11
[M:3/4] x6 | x6 | x6 |[M:5/8] x5 |[M:1/8] x |[M:3/4] x6 | z2 z .[F,C]3[K:treble] | x6 |[M:5/8] x5 | %20
[M:1/8] x |[M:3/4] x6 | x6 | x6 |[M:5/8] x5 |[M:1/8] x |[M:3/4] x6 | z2 z .[F,C]3[K:treble] | %28
[M:7/8] x6[K:bass] x |[M:5/8] x5 |] %30
V:4
 x6 | x6 | x6 | x6 |[M:5/8] x5 |[M:1/8] x |[M:3/4] x6 | x6 | x6 |[M:5/8] x5 |[M:1/8] x | %11
[M:3/4] x6 | x6 | x6 |[M:5/8] x5 |[M:1/8] x |[M:3/4] x6 | x6 | z2 z [B,G] z2 |[M:5/8] x5 | %20
[M:1/8] x |[M:3/4] x6 | z2 G, G,2 [Ec] | x6 |[M:5/8] z2 B, B,2 |[M:1/8] x |[M:3/4] z2 z .G3 | x6 | %28
[M:7/8] x7 |[M:5/8] x5 |] %30

